img/svg/search.svg

<svg xmlns="http://www.w3.org/2000/svg" width="17" height="17" viewBox="0 0 17 17"><desc>Created with Avocode</desc><path d="M16.83 16.84c.22-.21.22-.56 0-.77l-4.38-4.32c1.15-1.25 1.85-2.9 1.85-4.71 0-3.89-3.2-7.04-7.15-7.04s-7.15 3.15-7.15 7.04c0 3.88 3.2 7.03 7.15 7.03 1.71 0 3.27-.59 4.5-1.57l4.41 4.34c.21.21.56.21.77 0m-9.68-15.76c3.34 0 6.05 2.67 6.05 5.96 0 3.28-2.71 5.95-6.05 5.95s-6.05-2.67-6.05-5.95c0-3.29 2.71-5.96 6.05-5.96z" fill="#abafb3"/></svg>

<?xml version="1.0" encoding="UTF-8" standalone="no"?>
<!-- Generator: Avocode 0.7.1 - http://avocode.com -->
<svg xmlns="http://www.w3.org/2000/svg" xmlns:xlink="http://www.w3.org/1999/xlink" width="17" height="17" viewBox="0 0 17 17">
    <desc>Created with Avocode</desc>
    <path d="M 16.83 16.84 C 17.05 16.63, 17.05 16.28, 16.83 16.07 L 12.45 11.75 C 13.6 10.5, 14.3 8.85, 14.3 7.04 C 14.3 3.15, 11.1 0, 7.15 0 C 3.2 0, 0 3.15, 0 7.04 C 0 10.92, 3.2 14.07, 7.15 14.07 C 8.86 14.07, 10.42 13.48, 11.65 12.5 L 16.06 16.84 C 16.27 17.05, 16.62 17.05, 16.83 16.84 M 7.15 1.08 C 10.49 1.08, 13.2 3.75, 13.2 7.04 C 13.2 10.32, 10.49 12.99, 7.15 12.99 C 3.81 12.99, 1.1 10.32, 1.1 7.04 C 1.1 3.75, 3.81 1.08, 7.15 1.08 Z" fill="#abafb3" />
</svg>
